X: 9574
T: David Glen's
R: jig
M: 6/8
K: Eminor
|:B>EE E>EE|B2 G A2 F|GEE E>EE|FGA F>ED|
E>EE E>EE|B2 G A2 G|A<dG F>GA|D>DD F2 D:|
|:E>dc B2 E|ECE B2 E|F>dc B2 E|FGA FED|
E>dc B2 E|ECE B2 G|A<dG F>GA|D>DD F2 D:|

